images/full-screen-flow/android.svg

<svg height="24" viewBox="0 0 24 24" width="24" xmlns="http://www.w3.org/2000/svg"><path d="m15 5h-1v-1h1m-5 1h-1v-1h1m5.53-1.84 1.31-1.31c.19-.19.19-.51 0-.71-.2-.19-.52-.19-.71 0l-1.48 1.48c-.8-.39-1.7-.62-2.65-.62-.96 0-1.86.23-2.66.63l-1.49-1.49c-.19-.19-.51-.19-.7 0-.2.2-.2.52 0 .71l1.31 1.31c-1.49 1.1-2.46 2.84-2.46 4.84h12c0-2-1-3.75-2.47-4.84m4.97 5.84a1.5 1.5 0 0 0 -1.5 1.5v7a1.5 1.5 0 0 0 1.5 1.5 1.5 1.5 0 0 0 1.5-1.5v-7a1.5 1.5 0 0 0 -1.5-1.5m-17 0a1.5 1.5 0 0 0 -1.5 1.5v7a1.5 1.5 0 0 0 1.5 1.5 1.5 1.5 0 0 0 1.5-1.5v-7a1.5 1.5 0 0 0 -1.5-1.5m2.5 10a1 1 0 0 0 1 1h1v3.5a1.5 1.5 0 0 0 1.5 1.5 1.5 1.5 0 0 0 1.5-1.5v-3.5h2v3.5a1.5 1.5 0 0 0 1.5 1.5 1.5 1.5 0 0 0 1.5-1.5v-3.5h1a1 1 0 0 0 1-1v-10h-12z"/></svg>

<?xml version="1.0" encoding="UTF-8"?><!DOCTYPE svg PUBLIC "-//W3C//DTD SVG 1.1//EN" "http://www.w3.org/Graphics/SVG/1.1/DTD/svg11.dtd"><svg xmlns="http://www.w3.org/2000/svg" xmlns:xlink="http://www.w3.org/1999/xlink" version="1.1" width="24" height="24" viewBox="0 0 24 24"><path d="M15,5H14V4H15M10,5H9V4H10M15.53,2.16L16.84,0.85C17.03,0.66 17.03,0.34 16.84,0.14C16.64,-0.05 16.32,-0.05 16.13,0.14L14.65,1.62C13.85,1.23 12.95,1 12,1C11.04,1 10.14,1.23 9.34,1.63L7.85,0.14C7.66,-0.05 7.34,-0.05 7.15,0.14C6.95,0.34 6.95,0.66 7.15,0.85L8.46,2.16C6.97,3.26 6,5 6,7H18C18,5 17,3.25 15.53,2.16M20.5,8A1.5,1.5 0 0,0 19,9.5V16.5A1.5,1.5 0 0,0 20.5,18A1.5,1.5 0 0,0 22,16.5V9.5A1.5,1.5 0 0,0 20.5,8M3.5,8A1.5,1.5 0 0,0 2,9.5V16.5A1.5,1.5 0 0,0 3.5,18A1.5,1.5 0 0,0 5,16.5V9.5A1.5,1.5 0 0,0 3.5,8M6,18A1,1 0 0,0 7,19H8V22.5A1.5,1.5 0 0,0 9.5,24A1.5,1.5 0 0,0 11,22.5V19H13V22.5A1.5,1.5 0 0,0 14.5,24A1.5,1.5 0 0,0 16,22.5V19H17A1,1 0 0,0 18,18V8H6V18Z" /></svg>
